!!! OTL: Literature21
!!! Chapter: 5
!!! Section: I
!!! Page: 349
!!! Mode: 
!!! Encoder: DJB
**kern
*staff1
*I"Piano
=1-
*clefG2
*k[b-e-a-d-]
*A-:
*M2/4
4cc\
4ee-\
=2
8.b-\L
16cc\Jk
4dd-\
=3
8cc\L
8cc\J
16b-/LL
16a-/
16g/
16a-/JJ
=4
4b-\
4e-/
=5
4cc\
4ee-\
=6
8.b-\L
16cc\Jk
4dd-\
=7
8cc\L
8cc\J
16b-\LL
16cc\
16dd-\
16b-\JJ
=8
2a-/
=9
4.b-\
8b-\
=10
8cc\L
8b-\J
4a-/
=11
!!linebreak:original
8ee-\L
16ff\L
16ee-\JJ
8dd-\L
8cc\J
=12
4b-\
4e-/
=13
4cc\
4ee-\
=14
8.b-\L
16cc\Jk
4dd-\
=15
8cc\L
8cc\J
16b-\LL
16cc\
16dd-\
16b-\JJ
=16
2a-/
==
*-
